X:1
T:Es ist die Lieb
T:Georg Vogler
T:Source : Catechismus---Würzburg---J.Volmari---1652. Editor : André Vierendeels (24/09/17).
T:Notes : Original Clefs : C1, F4 Original note values have been halved Text Middle German
T:Es ist die Lieb
T:©
T:©
C:Georg Vogler
Z:©
%%score [ 1 2 ]
L:1/8
Q:1/4=120
M:2/2
K:C
V:1 treble nm="Soprano" snm="S"
V:2 bass nm="Bass" snm="B"
V:1
"^1)" E4 F2 G2 | A4 G2 c2- | c2 B2 !fermata!c4 | c4 c2 c2 | B2 A4 G2- | G2 ^F2 !fermata!G4 | %6
w: Es ist die|Lieb, so kommpt|_ von Gott,|ihr zei- chen|seyn die zehn|_ ge- bott:|
w: Er- zeht mir|dann die- se|_ Ge- nott|wel- che füh-|ren zum höch-|* sten Gott.|
 G4 A2 A2 | B2 B2 c2 A2 | !fermata!^G4 E4 | G2 A2 c2 B2- | B2 A4 ^G2 | !fermata!A4 E4 | ^F2 G2 E4 | %13
w: Wann wir sie|ü- ber- tre- ten|nit, und|wan- dlen in der|_ Gna- den|Schrit. Wer|le- ben will,|
w: Das erst und|al- ler gröst Ge-|bott: Du|solt glau- ben an|_ ei- nen|Gott. Zum|an- dern solt|
 ^G4 A2 B2 | !fermata!c4 c4 | B2 B2 d2 c2 | B2 B2 !fermata!A4 |] %17
w: kom- men zu|Gott, der|musz hal- ten sei-|ne Ge- bott.|
w: mit Forcht und|Schramm nicht|ey- tel nen- nen|Got- tes Namn.|
V:2
"^2)""^1)""^3)" A,,4 D,2 C,2 | F,4 E,2 A,2 | G,4 !fermata!C,4 | C,4 A,,2 C,2 | G,,2 A,,2 B,,2 C,2 | %5
w: Es ist die|Lieb, so kommpt|von Gott,|ihr zei- chen|seyn die ezhn _|
w: Wers dritt nicht|will be- mäh-|lin- gen,|der soll den|Sa- bath hei- *|
 D,2 D,2 !fermata!G,,4 | C,4 A,,2 D,2 | G,,2 G,2 C,2 D,2 | !fermata!E,4 E,4 | B,,2 A,,2 A,,2 B,,2 | %10
w: _ ge- botte:|Wann wir sie|ü- ber- tre- ten|nit, und|wan- dlen in der|
w: * li- gen.|Zum näch- stenns|sich das vier- te|kehrt, lehrt|wie man Vat- ter,|
 C,2 D,2 E,2 E,2 | !fermata!A,,4 A,,4 | D,2 G,,2 C,4 | E,4 F,2 G,2 | !fermata!C,4 A,,4 | %15
w: Gna- * * Wer|Schrit. Wer|le- ben will,|kom- men zu|Gott, der|
w: Mut- * * ter|ehrt. Das|fûnft Ge- bott|ver- beut Todt-|schlag, das|
 E,2 E,2 G,2 A,2 | E,2 E,2 !fermata!A,,4 |] %17
w: musz hal- ten sei-|ne Ge- bott.|
w: sechst Ge- bott so|viel ver- mag.|

